Enavato/img/be.svg

<svg xmlns="http://www.w3.org/2000/svg" width="34" height="33" viewBox="0 0 34 33"><filter filterUnits="objectBoundingBox" x="-3.13" y="-3.23" width="106.25" height="109.68" id="a"><feGaussianBlur in="SourceAlpha" stdDeviation=".5" result="dsBlurOut1"/><feFlood flood-color="#000" flood-opacity=".25" result="dsFloodOut1"/><feComposite in="dsFloodOut1" in2="dsBlurOut1" operator="in" result="dsShadow1"/><feOffset in="dsShadow1" dy="1" result="dsOffset1"/><feComposite in="dsOffset1" in2="SourceAlpha" operator="out" result="dropShadow1"/><feBlend in="dropShadow1" in2="SourceGraphic" result="sourceGraphic"/></filter><path d="M16.81 30.76c-8.48 0-15.35-6.88-15.35-15.37C1.46 6.9 8.33.02 16.81.02c8.47 0 15.35 6.88 15.35 15.37 0 8.49-6.88 15.37-15.35 15.37zm.16-18.02c0-3.47-3.78-3.19-3.78-3.19H7.6v12.32l5.23-.03s4.49.34 4.53-3.69c0-2.35-1.9-2.92-1.9-2.92s1.51-.54 1.51-2.49zm8.33-2.52h-4.79v1.37h4.79v-1.37zm-2.45 2.1c-4.58 0-4.36 4.82-4.36 4.82s-.25 4.74 4.45 4.74c3.63 0 4.15-2.99 4.15-2.99h-2.33s-.37 1.05-1.76 1.03c-2.27 0-2.19-2.19-2.19-2.19l6.39-.03s.66-5.38-4.35-5.38zm-.01 1.97c1.97 0 2.01 1.87 2.01 1.87l-4 .03s.15-1.9 1.99-1.9zM12.72 19.7l-2.6-.01-.01-3.28s1.58.01 2.65.01c-.01 0 2.01-.14 2.01 1.53 0 1.99-2.05 1.75-2.05 1.75zm.02-5.3l-2.63.01v-2.72l2.27.01s2.14-.28 2.14 1.31c0 1.6-1.78 1.39-1.78 1.39z" fill="#FFF" filter="url(#a)"/></svg>

<?xml version="1.0" encoding="utf-8"?>
<svg xmlns="http://www.w3.org/2000/svg"
	xmlns:xlink="http://www.w3.org/1999/xlink"
	width="34px" height="33px" viewBox="0 0 34 33">
<filter filterUnits="objectBoundingBox" x="-3.13" y="-3.23" width="106.25" height="109.68" id="filter0">
<feGaussianBlur in="SourceAlpha" stdDeviation="0.50" result="dsBlurOut1"/>
<feFlood flood-color="rgb(0,0,0)" flood-opacity="0.25" result="dsFloodOut1"/>
<feComposite in="dsFloodOut1" in2="dsBlurOut1" operator="in" result="dsShadow1"/>
<feOffset in="dsShadow1" dx="-0.00" dy="1.00" result="dsOffset1"/>
<feComposite in="dsOffset1" in2="SourceAlpha" operator="out" result="dropShadow1"/>
<feBlend in="dropShadow1" in2="SourceGraphic" mode="normal" result="sourceGraphic"/>
</filter>
<path fillRule="evenodd" d="M 16.81 30.76C 8.33 30.76 1.46 23.88 1.46 15.39 1.46 6.9 8.33 0.02 16.81 0.02 25.28 0.02 32.16 6.9 32.16 15.39 32.16 23.88 25.28 30.76 16.81 30.76ZM 16.97 12.74C 16.97 9.27 13.19 9.55 13.19 9.55 13.19 9.55 7.6 9.55 7.6 9.55 7.6 9.55 7.6 21.87 7.6 21.87 7.6 21.87 12.83 21.84 12.83 21.84 12.83 21.84 17.32 22.18 17.36 18.15 17.36 15.8 15.46 15.23 15.46 15.23 15.46 15.23 16.97 14.69 16.97 12.74ZM 25.3 10.22C 25.3 10.22 20.51 10.22 20.51 10.22 20.51 10.22 20.51 11.59 20.51 11.59 20.51 11.59 25.3 11.59 25.3 11.59 25.3 11.59 25.3 10.22 25.3 10.22ZM 22.85 12.32C 18.27 12.32 18.49 17.14 18.49 17.14 18.49 17.14 18.24 21.88 22.94 21.88 26.57 21.88 27.09 18.89 27.09 18.89 27.09 18.89 24.76 18.89 24.76 18.89 24.76 18.89 24.39 19.94 23 19.92 20.73 19.92 20.81 17.73 20.81 17.73 20.81 17.73 27.2 17.7 27.2 17.7 27.2 17.7 27.86 12.32 22.85 12.32ZM 22.84 14.29C 24.81 14.29 24.85 16.16 24.85 16.16 24.85 16.16 20.85 16.19 20.85 16.19 20.85 16.19 21 14.29 22.84 14.29ZM 12.72 19.7C 12.72 19.7 10.12 19.69 10.12 19.69 10.12 19.69 10.11 16.41 10.11 16.41 10.11 16.41 11.69 16.42 12.76 16.42 12.75 16.42 14.77 16.28 14.77 17.95 14.77 19.94 12.72 19.7 12.72 19.7ZM 12.74 14.4C 12.74 14.4 10.11 14.41 10.11 14.41 10.11 14.41 10.11 11.69 10.11 11.69 10.11 11.69 12.38 11.7 12.38 11.7 12.38 11.7 14.52 11.42 14.52 13.01 14.52 14.61 12.74 14.4 12.74 14.4Z" fill="rgb(255,255,255)" filter="url(#filter0)"/></svg>
